;FLAVOR:Marlin
;TIME:429
;Filament used: 0.183053m
;Layer height: 0.1
;MINX:102.21
;MINY:102.206
;MINZ:0.2
;MAXX:127.79
;MAXY:127.792
;MAXZ:6.5
;Generated with Cura_SteamEngine 4.4.0
M140 S60
M105
M190 S60
M104 S205
M105
M109 S205
M82 ;absolute extrusion mode
G28 ;Home
G1 Z15.0 F6000 ;Move the platform down 15mm
;Prime the extruder
G92 E0
G1 F200 E3
G92 E0
G92 E0
G92 E0
G1 F1500 E-6.5
;LAYER_COUNT:64
;LAYER:0
M107
G0 F2550 X106.003 Y105.902 Z0.2
;TYPE:SKIRT
G1 F1500 E0
G1 X106.394 Y105.532 E0.0179
G1 X107.01 Y105.006 E0.04485
G1 X107.438 Y104.678 E0.06278
G1 X108.16 Y104.187 E0.09182
G1 X108.635 Y103.901 E0.11026
G1 X109.367 Y103.511 E0.13785
G1 X109.857 Y103.283 E0.15582
G1 X110.681 Y102.955 E0.18532
G1 X111.17 Y102.792 E0.20247
G1 X111.913 Y102.585 E0.22812
G1 X112.46 Y102.461 E0.24677
G1 X113.329 Y102.315 E0.27608
G1 X113.864 Y102.256 E0.29398
G1 X114.675 Y102.209 E0.321
G1 X115.211 Y102.206 E0.33883
G1 X116.11 Y102.253 E0.36877
G1 X116.663 Y102.314 E0.38728
G1 X117.465 Y102.445 E0.41431
G1 X117.994 Y102.56 E0.43231
G1 X118.804 Y102.782 E0.46025
G1 X119.314 Y102.952 E0.47813
G1 X120.112 Y103.268 E0.50667
G1 X120.598 Y103.492 E0.52447
G1 X121.344 Y103.886 E0.55253
G1 X121.806 Y104.163 E0.57045
G1 X122.514 Y104.643 E0.5989
G1 X122.943 Y104.969 E0.61682
G1 X123.563 Y105.493 E0.64382
G1 X123.956 Y105.862 E0.66175
G1 X124.551 Y106.486 E0.69043
G1 X124.911 Y106.908 E0.70887
G1 X125.431 Y107.59 E0.7374
G1 X125.733 Y108.035 E0.75529
G1 X126.163 Y108.748 E0.78298
G1 X126.416 Y109.223 E0.80088
G1 X126.773 Y109.991 E0.82905
G1 X126.974 Y110.493 E0.84703
G1 X127.242 Y111.282 E0.87475
G1 X127.387 Y111.798 E0.89258
G1 X127.571 Y112.619 E0.92056
G1 X127.66 Y113.15 E0.93847
G1 X127.754 Y113.989 E0.96655
G1 X127.785 Y114.526 E0.98444
G1 X127.79 Y115.326 E1.01105
G1 X127.765 Y115.882 E1.02956
G1 X127.671 Y116.789 E1.05989
G1 X127.584 Y117.322 E1.07785
G1 X127.407 Y118.131 E1.10539
G1 X127.265 Y118.648 E1.12322
G1 X126.981 Y119.491 E1.15281
G1 X126.774 Y120.006 E1.17127
G1 X126.44 Y120.728 E1.19773
G1 X126.197 Y121.19 E1.21509
G1 X125.767 Y121.911 E1.24301
G1 X125.455 Y122.375 E1.26161
G1 X124.938 Y123.059 E1.29013
G1 X124.593 Y123.467 E1.3079
G1 X124.006 Y124.089 E1.33635
G1 X123.614 Y124.461 E1.35432
G1 X122.963 Y125.014 E1.38273
G1 X122.522 Y125.349 E1.40115
G1 X121.826 Y125.821 E1.42912
G1 X121.364 Y126.099 E1.44705
G1 X120.632 Y126.488 E1.47462
G1 X120.144 Y126.715 E1.49253
G1 X119.347 Y127.034 E1.52108
G1 X118.837 Y127.206 E1.53898
G1 X118.031 Y127.43 E1.5668
G1 X117.503 Y127.547 E1.58479
G1 X116.671 Y127.685 E1.61284
G1 X116.136 Y127.744 E1.63074
G1 X115.295 Y127.791 E1.65876
G1 X114.745 Y127.792 E1.67705
G1 X113.881 Y127.746 E1.70583
G1 X113.343 Y127.687 E1.72383
G1 X112.515 Y127.55 E1.75174
G1 X111.984 Y127.433 E1.76983
G1 X111.208 Y127.22 E1.79659
G1 X110.698 Y127.051 E1.81446
G1 X109.874 Y126.725 E1.84394
G1 X109.386 Y126.499 E1.86182
G1 X108.655 Y126.112 E1.88933
G1 X108.196 Y125.837 E1.90713
G1 X107.488 Y125.358 E1.93556
G1 X107.06 Y125.033 E1.95344
G1 X106.431 Y124.501 E1.98084
G1 X106.039 Y124.132 E1.99874
G1 X105.461 Y123.526 E2.02659
G1 X105.097 Y123.101 E2.04521
G1 X104.567 Y122.407 E2.07425
G1 X104.265 Y121.962 E2.09214
G1 X103.829 Y121.238 E2.12025
G1 X103.577 Y120.763 E2.13813
G1 X103.225 Y120.004 E2.16596
G1 X103.025 Y119.504 E2.18387
G1 X102.759 Y118.721 E2.21137
G1 X102.614 Y118.206 E2.22917
G1 X102.429 Y117.377 E2.25742
G1 X102.34 Y116.844 E2.27539
G1 X102.246 Y116.012 E2.30324
G1 X102.215 Y115.479 E2.321
G1 X102.21 Y114.678 E2.34764
G1 X102.235 Y114.119 E2.36625
G1 X102.329 Y113.21 E2.39665
G1 X102.416 Y112.677 E2.41461
G1 X102.594 Y111.864 E2.44229
G1 X102.736 Y111.348 E2.46009
G1 X103.017 Y110.514 E2.48936
G1 X103.224 Y109.998 E2.50785
G1 X103.56 Y109.27 E2.53452
G1 X103.802 Y108.81 E2.55181
G1 X104.231 Y108.092 E2.57963
G1 X104.532 Y107.644 E2.59758
G1 X105.029 Y106.983 E2.62508
G1 X105.387 Y106.556 E2.64362
G1 X106.003 Y105.902 E2.6735
G0 F2550 X106.278 Y106.192
G1 F1500 X106.669 Y105.822 E2.6914
G1 X107.254 Y105.323 E2.71698
G1 X107.682 Y104.995 E2.73491
G1 X108.366 Y104.529 E2.76244
G1 X108.841 Y104.243 E2.78088
G1 X109.536 Y103.874 E2.80705
G1 X110.026 Y103.646 E2.82503
G1 X110.808 Y103.335 E2.85302
G1 X111.297 Y103.172 E2.87016
G1 X112.001 Y102.975 E2.89448
G1 X112.548 Y102.851 E2.91313
G1 X113.373 Y102.713 E2.94095
G1 X113.908 Y102.654 E2.95886
G1 X114.678 Y102.609 E2.98451
G1 X115.214 Y102.606 E3.00234
G1 X116.066 Y102.651 E3.03072
G1 X116.619 Y102.712 E3.04922
G1 X117.38 Y102.836 E3.07486
G1 X117.909 Y102.951 E3.09287
G1 X118.677 Y103.162 E3.11936
G1 X119.187 Y103.332 E3.13724
G1 X119.945 Y103.631 E3.16434
G1 X120.431 Y103.855 E3.18214
G1 X121.138 Y104.229 E3.20874
G1 X121.6 Y104.506 E3.22666
G1 X122.272 Y104.961 E3.25365
G1 X122.701 Y105.287 E3.27157
G1 X123.289 Y105.784 E3.29718
G1 X123.682 Y106.153 E3.31511
G1 X124.247 Y106.745 E3.34233
G1 X124.607 Y107.167 E3.36078
G1 X125.1 Y107.815 E3.38786
G1 X125.402 Y108.26 E3.40575
G1 X125.81 Y108.936 E3.43201
G1 X126.063 Y109.411 E3.44991
G1 X126.402 Y110.139 E3.47662
G1 X126.603 Y110.641 E3.4946
G1 X126.857 Y111.39 E3.52091
G1 X127.002 Y111.906 E3.53874
G1 X127.176 Y112.685 E3.56528
G1 X127.265 Y113.216 E3.58319
G1 X127.355 Y114.013 E3.60987
G1 X127.386 Y114.55 E3.62776
G1 X127.391 Y115.308 E3.65297
G1 X127.366 Y115.864 E3.67148
G1 X127.276 Y116.724 E3.70024
G1 X127.189 Y117.257 E3.7182
G1 X127.022 Y118.025 E3.74434
G1 X126.88 Y118.542 E3.76218
G1 X126.61 Y119.342 E3.79026
G1 X126.403 Y119.857 E3.80872
G1 X126.086 Y120.542 E3.83382
G1 X125.843 Y121.004 E3.85119
G1 X125.435 Y121.688 E3.87768
G1 X125.123 Y122.152 E3.89627
G1 X124.633 Y122.801 E3.92332
G1 X124.288 Y123.209 E3.94109
G1 X123.731 Y123.799 E3.96808
G1 X123.339 Y124.171 E3.98605
G1 X122.721 Y124.696 E4.01302
G1 X122.28 Y125.031 E4.03144
G1 X121.619 Y125.479 E4.058
G1 X121.157 Y125.757 E4.07594
G1 X120.463 Y126.126 E4.10208
G1 X119.975 Y126.353 E4.11998
G1 X119.219 Y126.655 E4.14706
G1 X118.709 Y126.827 E4.16496
G1 X117.945 Y127.04 E4.19134
G1 X117.417 Y127.157 E4.20932
G1 X116.627 Y127.287 E4.23595
G1 X116.092 Y127.346 E4.25386
G1 X115.294 Y127.391 E4.28044
G1 X114.744 Y127.392 E4.29873
G1 X113.924 Y127.348 E4.32604
G1 X113.386 Y127.289 E4.34405
G1 X112.601 Y127.16 E4.37051
G1 X112.07 Y127.043 E4.38859
G1 X111.334 Y126.84 E4.41398
G1 X110.824 Y126.671 E4.43185
G1 X110.042 Y126.362 E4.45982
G1 X109.554 Y126.136 E4.47771
G1 X108.861 Y125.769 E4.50379
G1 X108.402 Y125.494 E4.52159
G1 X107.73 Y125.039 E4.54858
G1 X107.302 Y124.714 E4.56645
G1 X106.705 Y124.209 E4.59246
G1 X106.313 Y123.84 E4.61036
G1 X105.765 Y123.266 E4.63676
G1 X105.401 Y122.841 E4.65537
G1 X104.898 Y122.182 E4.68294
G1 X104.596 Y121.737 E4.70083
G1 X104.182 Y121.05 E4.72751
G1 X103.93 Y120.575 E4.74539
G1 X103.596 Y119.855 E4.77179
G1 X103.396 Y119.355 E4.7897
G1 X103.144 Y118.613 E4.81577
G1 X102.999 Y118.098 E4.83356
G1 X102.823 Y117.311 E4.86038
G1 X102.734 Y116.778 E4.87836
G1 X102.645 Y115.989 E4.90477
G1 X102.614 Y115.456 E4.92252
G1 X102.609 Y114.695 E4.94784
G1 X102.634 Y114.136 E4.96645
G1 X102.724 Y113.275 E4.99524
G1 X102.811 Y112.742 E5.0132
G1 X102.979 Y111.971 E5.03945
G1 X103.121 Y111.455 E5.05725
G1 X103.388 Y110.663 E5.08505
G1 X103.595 Y110.147 E5.10354
G1 X103.914 Y109.457 E5.12882
G1 X104.156 Y108.997 E5.14611
G1 X104.563 Y108.315 E5.17252
G1 X104.864 Y107.867 E5.19048
G1 X105.335 Y107.24 E5.21656
G1 X105.693 Y106.813 E5.23509
G1 X106.278 Y106.192 E5.26347
G0 F2550 X106.553 Y106.483
G1 F1500 X106.944 Y106.113 E5.28137
G1 X107.497 Y105.641 E5.30555
G1 X107.925 Y105.313 E5.32349
G1 X108.572 Y104.872 E5.34953
G1 X109.047 Y104.586 E5.36797
G1 X109.705 Y104.236 E5.39276
G1 X110.195 Y104.008 E5.41074
G1 X110.934 Y103.714 E5.43719
G1 X111.423 Y103.551 E5.45433
G1 X112.089 Y103.365 E5.47733
G1 X112.636 Y103.241 E5.49599
G1 X113.417 Y103.11 E5.52233
G1 X113.952 Y103.051 E5.54023
G1 X114.68 Y103.009 E5.56448
G1 X115.216 Y103.006 E5.58231
G1 X116.022 Y103.048 E5.60915
G1 X116.575 Y103.109 E5.62766
G1 X117.295 Y103.227 E5.65192
G1 X117.824 Y103.342 E5.66993
G1 X118.551 Y103.541 E5.695
G1 X119.061 Y103.711 E5.71288
G1 X119.777 Y103.995 E5.7385
G1 X120.263 Y104.219 E5.7563
G1 X120.933 Y104.572 E5.78149
G1 X121.395 Y104.849 E5.7994
G1 X122.03 Y105.28 E5.82493
G1 X122.459 Y105.606 E5.84285
G1 X123.015 Y106.076 E5.86706
G1 X123.408 Y106.445 E5.88499
G1 X123.942 Y107.005 E5.91073
G1 X124.302 Y107.427 E5.92918
G1 X124.769 Y108.039 E5.95478
G1 X125.071 Y108.484 E5.97267
G1 X125.457 Y109.124 E5.99753
G1 X125.71 Y109.599 E6.01543
G1 X126.03 Y110.288 E6.0407
G1 X126.231 Y110.79 E6.05868
G1 X126.472 Y111.498 E6.08356
G1 X126.617 Y112.014 E6.10138
G1 X126.782 Y112.751 E6.1265
G1 X126.871 Y113.282 E6.14441
G1 X126.955 Y114.036 E6.16964
G1 X126.986 Y114.573 E6.18753
G1 X126.991 Y115.29 E6.21138
G1 X126.966 Y115.846 E6.22989
G1 X126.882 Y116.66 E6.25711
G1 X126.795 Y117.193 E6.27507
G1 X126.636 Y117.919 E6.29979
G1 X126.494 Y118.436 E6.31763
G1 X126.239 Y119.193 E6.34419
G1 X126.032 Y119.708 E6.36265
G1 X125.732 Y120.356 E6.3864
G1 X125.489 Y120.818 E6.40377
G1 X125.103 Y121.465 E6.42882
G1 X124.791 Y121.929 E6.44742
G1 X124.327 Y122.543 E6.47302
G1 X123.982 Y122.951 E6.49079
G1 X123.456 Y123.509 E6.5163
G1 X123.064 Y123.881 E6.53427
G1 X122.479 Y124.377 E6.55978
G1 X122.038 Y124.712 E6.5782
G1 X121.413 Y125.136 E6.60332
G1 X120.951 Y125.414 E6.62125
G1 X120.294 Y125.763 E6.646
G1 X119.806 Y125.99 E6.6639
G1 X119.091 Y126.276 E6.68951
G1 X118.581 Y126.448 E6.70741
G1 X117.858 Y126.649 E6.73237
G1 X117.33 Y126.766 E6.75036
G1 X116.583 Y126.89 E6.77554
G1 X116.048 Y126.949 E6.79344
G1 X115.294 Y126.991 E6.81856
G1 X114.744 Y126.992 E6.83685
G1 X113.968 Y126.95 E6.8627
G1 X113.43 Y126.891 E6.8807
G1 X112.687 Y126.769 E6.90575
G1 X112.156 Y126.652 E6.92383
G1 X111.46 Y126.461 E6.94784
G1 X110.95 Y126.292 E6.96571
G1 X110.21 Y125.999 E6.99218
G1 X109.722 Y125.773 E7.01006
G1 X109.066 Y125.426 E7.03475
G1 X108.607 Y125.151 E7.05254
G1 X107.972 Y124.721 E7.07805
G1 X107.544 Y124.396 E7.09593
G1 X106.979 Y123.918 E7.12054
G1 X106.587 Y123.549 E7.13845
G1 X106.068 Y123.005 E7.16345
G1 X105.704 Y122.58 E7.18206
G1 X105.229 Y121.958 E7.2081
G1 X104.927 Y121.513 E7.22598
G1 X104.535 Y120.863 E7.25123
G1 X104.283 Y120.388 E7.26911
G1 X103.968 Y119.707 E7.29407
G1 X103.768 Y119.207 E7.31198
G1 X103.529 Y118.504 E7.33668
G1 X103.384 Y117.989 E7.35447
G1 X103.218 Y117.245 E7.37983
G1 X103.129 Y116.712 E7.3978
G1 X103.045 Y115.965 E7.4228
G1 X103.014 Y115.432 E7.44056
G1 X103.009 Y114.713 E7.46447
G1 X103.034 Y114.154 E7.48308
G1 X103.118 Y113.339 E7.51033
G1 X103.205 Y112.806 E7.5283
G1 X103.365 Y112.077 E7.55312
G1 X103.507 Y111.561 E7.57092
G1 X103.759 Y110.812 E7.5972
G1 X103.966 Y110.296 E7.6157
G1 X104.268 Y109.643 E7.63963
G1 X104.51 Y109.183 E7.65691
G1 X104.895 Y108.538 E7.6819
G1 X105.196 Y108.09 E7.69985
G1 X105.642 Y107.497 E7.72453
G1 X106 Y107.07 E7.74306
G1 X106.553 Y106.483 E7.76988
G0 F2550 X106.828 Y106.773
G1 F1500 X107.219 Y106.403 E7.78779
G1 X107.74 Y105.958 E7.81058
G1 X108.168 Y105.63 E7.82851
G1 X108.779 Y105.215 E7.85308
G1 X109.254 Y104.929 E7.87152
G1 X109.874 Y104.599 E7.89488
G1 X110.364 Y104.371 E7.91285
G1 X111.061 Y104.094 E7.9378
G1 X111.55 Y103.931 E7.95494
G1 X112.178 Y103.755 E7.97664
G1 X112.725 Y103.631 E7.99529
G1 X113.461 Y103.508 E8.02011
G1 X113.996 Y103.449 E8.03801
G1 X114.682 Y103.409 E8.06087
G1 X115.218 Y103.406 E8.0787
G1 X115.979 Y103.446 E8.10404
G1 X116.532 Y103.507 E8.12255
G1 X117.21 Y103.618 E8.1454
G1 X117.739 Y103.733 E8.1634
G1 X118.424 Y103.921 E8.18703
G1 X118.934 Y104.091 E8.20491
G1 X119.61 Y104.358 E8.22908
G1 X120.096 Y104.582 E8.24688
G1 X120.727 Y104.915 E8.27061
G1 X121.189 Y105.192 E8.28853
G1 X121.788 Y105.598 E8.3126
G1 X122.217 Y105.924 E8.33052
G1 X122.742 Y106.367 E8.35336
G1 X123.135 Y106.736 E8.37129
G1 X123.638 Y107.265 E8.39557
G1 X123.998 Y107.687 E8.41402
G1 X124.438 Y108.264 E8.43816
G1 X124.74 Y108.709 E8.45604
G1 X125.104 Y109.312 E8.47947
G1 X125.357 Y109.787 E8.49737
G1 X125.659 Y110.437 E8.52121
G1 X125.86 Y110.939 E8.53919
G1 X126.087 Y111.607 E8.56266
G1 X126.232 Y112.123 E8.58049
G1 X126.387 Y112.817 E8.60414
G1 X126.476 Y113.348 E8.62205
G1 X126.556 Y114.059 E8.64584
G1 X126.587 Y114.596 E8.66373
G1 X126.591 Y115.272 E8.68622
G1 X126.566 Y115.828 E8.70473
G1 X126.487 Y116.595 E8.73037
G1 X126.4 Y117.128 E8.74834
G1 X126.25 Y117.813 E8.77166
G1 X126.108 Y118.33 E8.78949
G1 X125.868 Y119.043 E8.81451
G1 X125.661 Y119.558 E8.83297
G1 X125.378 Y120.169 E8.85537
G1 X125.135 Y120.631 E8.87273
G1 X124.771 Y121.242 E8.89639
G1 X124.459 Y121.706 E8.91498
G1 X124.022 Y122.285 E8.93911
G1 X123.677 Y122.693 E8.95688
G1 X123.18 Y123.218 E8.98093
G1 X122.788 Y123.59 E8.9989
G1 X122.237 Y124.059 E9.02297
G1 X121.796 Y124.394 E9.04139
G1 X121.207 Y124.793 E9.06505
G1 X120.745 Y125.071 E9.08298
G1 X120.126 Y125.4 E9.1063
G1 X119.638 Y125.627 E9.1242
G1 X118.963 Y125.897 E9.14838
G1 X118.453 Y126.069 E9.16628
G1 X117.772 Y126.259 E9.1898
G1 X117.244 Y126.376 E9.20778
G1 X116.539 Y126.492 E9.23155
G1 X116.004 Y126.551 E9.24945
G1 X115.293 Y126.591 E9.27313
G1 X114.743 Y126.592 E9.29143
G1 X114.012 Y126.553 E9.31578
G1 X113.474 Y126.494 E9.33378
G1 X112.773 Y126.378 E9.35741
G1 X112.242 Y126.261 E9.37549
G1 X111.586 Y126.081 E9.39812
G1 X111.076 Y125.912 E9.41599
G1 X110.378 Y125.636 E9.44095
G1 X109.89 Y125.41 E9.45884
G1 X109.272 Y125.083 E9.4821
G1 X108.813 Y124.808 E9.49989
G1 X108.214 Y124.402 E9.52396
G1 X107.786 Y124.077 E9.54183
G1 X107.253 Y123.627 E9.56504
G1 X106.861 Y123.258 E9.58294
G1 X106.372 Y122.745 E9.60651
G1 X106.008 Y122.32 E9.62512
G1 X105.56 Y121.733 E9.64968
G1 X105.258 Y121.288 E9.66757
G1 X104.889 Y120.675 E9.69137
G1 X104.637 Y120.2 E9.70925
G1 X104.339 Y119.558 E9.73279
G1 X104.139 Y119.058 E9.75071
G1 X103.914 Y118.396 E9.77396
G1 X103.769 Y117.881 E9.79176
G1 X103.612 Y117.179 E9.81568
G1 X103.523 Y116.646 E9.83365
G1 X103.444 Y115.942 E9.85722
G1 X103.413 Y115.409 E9.87497
G1 X103.409 Y114.731 E9.89753
G1 X103.434 Y114.172 E9.91614
G1 X103.513 Y113.404 E9.94181
G1 X103.6 Y112.871 E9.95978
G1 X103.751 Y112.183 E9.9832
G1 X103.893 Y111.667 E10.001
G1 X104.131 Y110.961 E10.02578
G1 X104.338 Y110.445 E10.04428
G1 X104.622 Y109.829 E10.06684
G1 X104.864 Y109.369 E10.08413
G1 X105.227 Y108.761 E10.10768
G1 X105.528 Y108.313 E10.12563
G1 X105.948 Y107.754 E10.14888
G1 X106.306 Y107.327 E10.16742
G1 X106.828 Y106.773 E10.19273
G0 F2550 X107.103 Y107.064
G1 F1500 X107.494 Y106.694 E10.21064
G1 X107.984 Y106.276 E10.23206
G1 X108.412 Y105.948 E10.25
G1 X108.985 Y105.557 E10.27307
G1 X109.46 Y105.271 E10.29151
G1 X110.042 Y104.962 E10.31343
G1 X110.532 Y104.734 E10.3314
G1 X111.187 Y104.473 E10.35485
G1 X111.676 Y104.31 E10.372
G1 X112.266 Y104.145 E10.39237
G1 X112.813 Y104.021 E10.41103
G1 X113.504 Y103.905 E10.43433
G1 X114.039 Y103.846 E10.45223
G1 X114.684 Y103.809 E10.47372
G1 X115.22 Y103.806 E10.49155
G1 X115.935 Y103.843 E10.51536
G1 X116.488 Y103.904 E10.53387
G1 X117.125 Y104.009 E10.55534
G1 X117.654 Y104.124 E10.57335
G1 X118.298 Y104.3 E10.59555
G1 X118.808 Y104.47 E10.61343
G1 X119.442 Y104.721 E10.63611
G1 X119.928 Y104.945 E10.65391
G1 X120.521 Y105.259 E10.67623
G1 X120.983 Y105.536 E10.69414
G1 X121.546 Y105.917 E10.71675
G1 X121.975 Y106.243 E10.73467
G1 X122.468 Y106.659 E10.75613
G1 X122.861 Y107.028 E10.77406
G1 X123.334 Y107.524 E10.79685
G1 X123.694 Y107.946 E10.8153
G1 X124.107 Y108.488 E10.83797
G1 X124.409 Y108.933 E10.85585
G1 X124.751 Y109.5 E10.87788
G1 X125.004 Y109.975 E10.89578
G1 X125.288 Y110.585 E10.91816
G1 X125.489 Y111.087 E10.93614
G1 X125.702 Y111.715 E10.9582
G1 X125.847 Y112.231 E10.97603
G1 X125.993 Y112.883 E10.99825
G1 X126.082 Y113.414 E11.01616
G1 X126.157 Y114.082 E11.03851
G1 X126.188 Y114.619 E11.0564
G1 X126.192 Y115.254 E11.07752
G1 X126.167 Y115.81 E11.09604
G1 X126.092 Y116.531 E11.12015
G1 X126.005 Y117.064 E11.13811
G1 X125.865 Y117.707 E11.16
G1 X125.723 Y118.224 E11.17783
G1 X125.497 Y118.894 E11.20135
G1 X125.29 Y119.409 E11.21981
G1 X125.024 Y119.983 E11.24085
