;FLAVOR:Marlin
;TIME:420
;Filament used: 0.177826m
;Layer height: 0.1
;MINX:102.21
;MINY:102.205
;MINZ:0.2
;MAXX:127.647
;MAXY:127.79
;MAXZ:6.5
;Generated with Cura_SteamEngine 4.4.0
M140 S60
M105
M190 S60
M104 S205
M105
M109 S205
M82 ;absolute extrusion mode
G28 ;Home
G1 Z15.0 F6000 ;Move the platform down 15mm
;Prime the extruder
G92 E0
G1 F200 E3
G92 E0
G92 E0
G92 E0
G1 F1500 E-6.5
;LAYER_COUNT:64
;LAYER:0
M107
G0 F2550 X105.962 Y105.943 Z0.2
;TYPE:SKIRT
G1 F1500 E0
G1 X106.341 Y105.581 E0.01743
G1 X106.995 Y105.021 E0.04607
G1 X107.464 Y104.663 E0.06569
G1 X108.158 Y104.19 E0.09363
G1 X108.619 Y103.911 E0.11155
G1 X109.368 Y103.512 E0.13978
G1 X109.856 Y103.285 E0.15768
G1 X110.648 Y102.968 E0.18605
G1 X111.148 Y102.799 E0.2036
G1 X111.941 Y102.577 E0.23099
G1 X112.459 Y102.461 E0.24865
G1 X113.262 Y102.324 E0.27574
G1 X113.786 Y102.263 E0.29329
G1 X114.413 Y102.216 E0.3142
G1 X114.725 Y102.205 E0.32459
G1 X115.515 Y102.217 E0.35086
G1 X116.299 Y102.309 E0.37712
G1 X117.07 Y102.48 E0.40339
G1 X117.82 Y102.728 E0.42966
G1 X118.541 Y103.05 E0.45592
G1 X118.898 Y103.256 E0.46963
G1 X119.437 Y103.435 E0.48852
G1 X120.36 Y103.809 E0.52164
G1 X120.827 Y104.034 E0.53889
G1 X121.544 Y104.428 E0.5661
G1 X121.974 Y104.694 E0.58291
G1 X122.821 Y105.299 E0.61753
G1 X123.235 Y105.639 E0.63535
G1 X123.864 Y106.216 E0.66374
G1 X124.332 Y106.695 E0.68601
G1 X124.855 Y107.287 E0.71229
G1 X125.152 Y107.687 E0.72886
G1 X125.637 Y108.383 E0.75707
G1 X126.223 Y109.371 E0.79528
G1 X126.466 Y109.86 E0.81344
G1 X126.88 Y110.861 E0.84947
G1 X127.122 Y111.586 E0.87489
G1 X127.379 Y112.565 E0.90856
G1 X127.475 Y113.058 E0.92526
G1 X127.605 Y114.079 E0.95949
G1 X127.647 Y114.775 E0.98269
G1 X127.644 Y115.754 E1.01525
G1 X127.603 Y116.381 E1.03615
G1 X127.462 Y117.436 E1.07155
G1 X127.34 Y118.032 E1.09178
G1 X127.111 Y118.894 E1.12145
G1 X126.933 Y119.438 E1.14048
G1 X126.626 Y120.229 E1.1687
G1 X126.391 Y120.748 E1.18765
G1 X125.952 Y121.58 E1.21894
G1 X125.672 Y122.041 E1.23688
G1 X125.228 Y122.694 E1.26315
G1 X124.945 Y123.047 E1.27819
G1 X124.568 Y123.49 E1.29754
G1 X123.99 Y124.099 E1.32547
G1 X123.596 Y124.472 E1.34351
G1 X122.942 Y125.027 E1.37204
G1 X122.51 Y125.354 E1.39006
G1 X121.834 Y125.812 E1.41722
G1 X121.372 Y126.091 E1.43517
G1 X120.661 Y126.472 E1.462
G1 X120.17 Y126.703 E1.48005
G1 X119.361 Y127.029 E1.50906
G1 X118.879 Y127.193 E1.52599
G1 X118.098 Y127.414 E1.55299
G1 X117.606 Y127.526 E1.56977
G1 X116.846 Y127.66 E1.59544
G1 X116.344 Y127.723 E1.61227
G1 X115.446 Y127.784 E1.6422
G1 X114.803 Y127.79 E1.66359
G1 X113.894 Y127.745 E1.69386
G1 X113.356 Y127.687 E1.71186
G1 X112.554 Y127.558 E1.73887
G1 X112.028 Y127.445 E1.75677
G1 X111.204 Y127.22 E1.78518
G1 X110.717 Y127.058 E1.80225
G1 X109.972 Y126.767 E1.82885
G1 X109.502 Y126.555 E1.846
G1 X108.763 Y126.173 E1.87367
G1 X108.318 Y125.912 E1.89083
G1 X107.572 Y125.415 E1.92064
G1 X107.074 Y125.04 E1.94138
G1 X106.433 Y124.501 E1.96923
G1 X106.036 Y124.129 E1.98733
G1 X105.427 Y123.49 E2.01669
G1 X105.086 Y123.089 E2.03419
G1 X104.589 Y122.438 E2.06143
G1 X104.295 Y122.008 E2.07876
G1 X103.868 Y121.308 E2.10603
G1 X103.62 Y120.848 E2.12341
G1 X103.282 Y120.135 E2.14966
G1 X103.082 Y119.653 E2.16701
G1 X102.793 Y118.832 E2.19596
G1 X102.648 Y118.331 E2.21331
G1 X102.469 Y117.57 E2.23931
G1 X102.374 Y117.052 E2.25683
G1 X102.268 Y116.227 E2.28449
G1 X102.229 Y115.706 E2.30187
G1 X102.21 Y114.902 E2.32862
G1 X102.228 Y114.27 E2.34965
G1 X102.318 Y113.289 E2.38241
G1 X102.399 Y112.77 E2.39988
G1 X102.588 Y111.895 E2.42966
G1 X102.745 Y111.327 E2.44926
G1 X103.022 Y110.506 E2.47808
G1 X103.223 Y110.004 E2.49606
G1 X103.558 Y109.277 E2.52269
G1 X103.81 Y108.797 E2.54072
G1 X104.253 Y108.056 E2.56943
G1 X104.551 Y107.615 E2.58713
G1 X105.04 Y106.967 E2.61413
G1 X105.375 Y106.568 E2.63146
G1 X105.962 Y105.943 E2.65998
G0 F2550 X106.238 Y106.232
G1 F1500 X106.617 Y105.87 E2.67741
G1 X107.238 Y105.339 E2.70459
G1 X107.707 Y104.981 E2.72421
G1 X108.366 Y104.532 E2.75074
G1 X108.827 Y104.253 E2.76866
G1 X109.537 Y103.874 E2.79543
G1 X110.025 Y103.647 E2.81333
G1 X110.776 Y103.347 E2.84023
G1 X111.276 Y103.178 E2.85778
G1 X112.029 Y102.967 E2.88379
G1 X112.547 Y102.851 E2.90144
G1 X113.308 Y102.722 E2.92712
G1 X113.832 Y102.661 E2.94466
G1 X114.427 Y102.616 E2.96451
G1 X114.739 Y102.605 E2.97489
G1 X115.508 Y102.617 E3.00047
G1 X116.272 Y102.71 E3.02607
G1 X117.022 Y102.882 E3.05166
G1 X117.75 Y103.13 E3.07724
G1 X118.448 Y103.452 E3.10281
G1 X118.736 Y103.624 E3.11397
G1 X119.311 Y103.815 E3.13412
G1 X120.186 Y104.169 E3.16551
G1 X120.653 Y104.394 E3.18275
G1 X121.334 Y104.768 E3.2086
G1 X121.764 Y105.034 E3.22541
G1 X122.567 Y105.608 E3.25824
G1 X122.981 Y105.948 E3.27606
G1 X123.578 Y106.496 E3.30301
G1 X124.046 Y106.975 E3.32529
G1 X124.554 Y107.552 E3.35086
G1 X124.824 Y107.915 E3.3659
G1 X125.309 Y108.611 E3.39412
G1 X125.865 Y109.549 E3.43039
G1 X126.108 Y110.038 E3.44855
G1 X126.5 Y110.988 E3.48273
G1 X126.742 Y111.713 E3.50815
G1 X126.987 Y112.642 E3.54011
G1 X127.083 Y113.135 E3.55681
G1 X127.206 Y114.103 E3.58927
G1 X127.248 Y114.799 E3.61246
G1 X127.245 Y115.728 E3.64336
G1 X127.204 Y116.355 E3.66425
G1 X127.07 Y117.356 E3.69784
G1 X126.948 Y117.952 E3.71808
G1 X126.731 Y118.769 E3.74619
G1 X126.553 Y119.313 E3.76523
G1 X126.261 Y120.064 E3.79203
G1 X126.026 Y120.583 E3.81098
G1 X125.61 Y121.373 E3.84068
G1 X125.33 Y121.834 E3.85862
G1 X124.897 Y122.469 E3.88418
G1 X124.641 Y122.788 E3.89778
G1 X124.264 Y123.231 E3.91713
G1 X123.715 Y123.809 E3.94364
G1 X123.321 Y124.182 E3.96169
G1 X122.7 Y124.708 E3.98876
G1 X122.268 Y125.035 E4.00678
G1 X121.627 Y125.47 E4.03254
G1 X121.165 Y125.749 E4.0505
G1 X120.49 Y126.11 E4.07595
G1 X119.999 Y126.341 E4.094
G1 X119.233 Y126.651 E4.12149
G1 X118.751 Y126.815 E4.13842
G1 X118.01 Y127.024 E4.16403
G1 X117.518 Y127.136 E4.18081
G1 X116.796 Y127.263 E4.20519
G1 X116.294 Y127.326 E4.22202
G1 X115.442 Y127.384 E4.25042
G1 X114.799 Y127.39 E4.27181
G1 X113.937 Y127.347 E4.30052
G1 X113.399 Y127.289 E4.31851
G1 X112.638 Y127.167 E4.34415
G1 X112.112 Y127.054 E4.36204
G1 X111.33 Y126.841 E4.389
G1 X110.843 Y126.679 E4.40607
G1 X110.136 Y126.403 E4.43131
G1 X109.666 Y126.191 E4.44846
G1 X108.965 Y125.828 E4.47472
G1 X108.52 Y125.567 E4.49188
G1 X107.813 Y125.095 E4.52015
G1 X107.315 Y124.72 E4.54089
G1 X106.706 Y124.209 E4.56733
G1 X106.309 Y123.837 E4.58542
G1 X105.732 Y123.231 E4.61325
G1 X105.391 Y122.83 E4.63076
G1 X104.919 Y122.213 E4.6566
G1 X104.625 Y121.783 E4.67392
G1 X104.22 Y121.118 E4.69982
G1 X103.972 Y120.658 E4.7172
G1 X103.651 Y119.982 E4.74209
G1 X103.451 Y119.5 E4.75945
G1 X103.178 Y118.721 E4.7869
G1 X103.033 Y118.22 E4.80425
G1 X102.862 Y117.498 E4.82893
G1 X102.767 Y116.98 E4.84644
G1 X102.667 Y116.197 E4.8727
G1 X102.628 Y115.676 E4.89008
G1 X102.61 Y114.913 E4.91546
G1 X102.628 Y114.281 E4.93649
G1 X102.714 Y113.351 E4.96755
G1 X102.795 Y112.832 E4.98502
G1 X102.973 Y112.002 E5.01326
G1 X103.13 Y111.434 E5.03286
G1 X103.393 Y110.654 E5.06024
G1 X103.594 Y110.152 E5.07822
G1 X103.912 Y109.463 E5.10346
G1 X104.164 Y108.983 E5.12149
G1 X104.585 Y108.28 E5.14875
G1 X104.883 Y107.839 E5.16645
G1 X105.347 Y107.224 E5.19207
G1 X105.682 Y106.825 E5.2094
G1 X106.238 Y106.232 E5.23644
G0 F2550 X106.514 Y106.521
G1 F1500 X106.893 Y106.159 E5.25387
G1 X107.481 Y105.657 E5.27958
G1 X107.95 Y105.299 E5.29921
G1 X108.573 Y104.874 E5.32429
G1 X109.034 Y104.595 E5.34221
G1 X109.706 Y104.237 E5.36754
G1 X110.194 Y104.01 E5.38544
G1 X110.905 Y103.726 E5.4109
G1 X111.405 Y103.557 E5.42846
G1 X112.116 Y103.357 E5.45302
G1 X112.634 Y103.241 E5.47068
G1 X113.355 Y103.119 E5.495
G1 X113.879 Y103.058 E5.51255
G1 X114.441 Y103.015 E5.53129
G1 X114.753 Y103.004 E5.54168
G1 X115.501 Y103.018 E5.56656
G1 X116.244 Y103.111 E5.59146
G1 X116.972 Y103.283 E5.61634
G1 X117.677 Y103.532 E5.64121
G1 X118.352 Y103.855 E5.6661
G1 X118.569 Y103.989 E5.67458
G1 X119.185 Y104.194 E5.69618
G1 X120.012 Y104.53 E5.72587
G1 X120.479 Y104.755 E5.74311
G1 X121.124 Y105.108 E5.76756
G1 X121.554 Y105.374 E5.78438
G1 X122.314 Y105.917 E5.81545
G1 X122.728 Y106.257 E5.83327
G1 X123.292 Y106.775 E5.85874
G1 X123.76 Y107.254 E5.88101
G1 X124.253 Y107.816 E5.90587
G1 X124.496 Y108.144 E5.91945
G1 X124.981 Y108.84 E5.94767
G1 X125.507 Y109.727 E5.98196
G1 X125.75 Y110.216 E6.00013
G1 X126.121 Y111.115 E6.03247
G1 X126.363 Y111.84 E6.0579
G1 X126.594 Y112.718 E6.08809
G1 X126.69 Y113.211 E6.1048
G1 X126.806 Y114.127 E6.13551
G1 X126.848 Y114.823 E6.1587
G1 X126.846 Y115.702 E6.18793
G1 X126.805 Y116.329 E6.20883
G1 X126.678 Y117.276 E6.24061
G1 X126.556 Y117.872 E6.26084
G1 X126.351 Y118.645 E6.28744
G1 X126.173 Y119.189 E6.30648
G1 X125.897 Y119.899 E6.33182
G1 X125.662 Y120.418 E6.35077
G1 X125.268 Y121.165 E6.37886
G1 X124.988 Y121.626 E6.3968
G1 X124.336 Y122.529 E6.43384
G1 X123.959 Y122.972 E6.45319
G1 X123.44 Y123.518 E6.47824
G1 X123.046 Y123.891 E6.49629
G1 X122.459 Y124.389 E6.52189
G1 X122.027 Y124.716 E6.53991
G1 X121.421 Y125.127 E6.56427
G1 X120.959 Y125.406 E6.58222
G1 X120.32 Y125.748 E6.60632
G1 X119.829 Y125.979 E6.62437
G1 X119.104 Y126.272 E6.65038
G1 X118.622 Y126.436 E6.66731
G1 X117.921 Y126.634 E6.69154
G1 X117.429 Y126.746 E6.70832
G1 X116.747 Y126.867 E6.73136
G1 X116.245 Y126.93 E6.74819
G1 X115.438 Y126.984 E6.77509
G1 X114.795 Y126.99 E6.79648
G1 X113.98 Y126.95 E6.82362
G1 X113.442 Y126.892 E6.84161
G1 X112.722 Y126.776 E6.86587
G1 X112.196 Y126.663 E6.88376
G1 X111.456 Y126.461 E6.90928
G1 X110.969 Y126.299 E6.92635
G1 X110.301 Y126.038 E6.9502
G1 X109.831 Y125.826 E6.96735
G1 X109.168 Y125.483 E6.99218
G1 X108.723 Y125.222 E7.00934
G1 X108.053 Y124.776 E7.03611
G1 X107.555 Y124.401 E7.05684
G1 X106.98 Y123.917 E7.08184
G1 X106.583 Y123.545 E7.09993
G1 X106.036 Y122.972 E7.12628
G1 X105.695 Y122.571 E7.14379
G1 X105.25 Y121.987 E7.16821
G1 X104.956 Y121.557 E7.18553
G1 X104.572 Y120.928 E7.21005
G1 X104.324 Y120.468 E7.22743
G1 X104.02 Y119.829 E7.25096
G1 X103.82 Y119.347 E7.26832
G1 X103.562 Y118.61 E7.29429
G1 X103.417 Y118.109 E7.31164
G1 X103.256 Y117.426 E7.33498
G1 X103.161 Y116.908 E7.35249
G1 X103.066 Y116.168 E7.37731
G1 X103.027 Y115.647 E7.39468
G1 X103.01 Y114.925 E7.41871
G1 X103.028 Y114.293 E7.43973
G1 X103.109 Y113.413 E7.46913
G1 X103.19 Y112.894 E7.4866
G1 X103.359 Y112.108 E7.51334
G1 X103.516 Y111.54 E7.53294
G1 X103.765 Y110.803 E7.55881
G1 X103.966 Y110.301 E7.5768
G1 X104.266 Y109.649 E7.60067
G1 X104.518 Y109.169 E7.6187
G1 X104.916 Y108.504 E7.64448
G1 X105.214 Y108.063 E7.66218
G1 X105.653 Y107.481 E7.68643
G1 X105.988 Y107.082 E7.70375
G1 X106.514 Y106.521 E7.72933
G0 F2550 X106.79 Y106.81
G1 F1500 X107.169 Y106.448 E7.74676
G1 X107.723 Y105.975 E7.77099
G1 X108.192 Y105.617 E7.79062
G1 X108.78 Y105.217 E7.81427
G1 X109.241 Y104.938 E7.83219
G1 X109.874 Y104.6 E7.85606
G1 X110.362 Y104.373 E7.87396
G1 X111.033 Y104.104 E7.898
G1 X111.533 Y103.935 E7.91556
G1 X112.204 Y103.748 E7.93873
G1 X112.722 Y103.632 E7.95638
G1 X113.401 Y103.516 E7.97929
G1 X113.925 Y103.455 E7.99684
G1 X114.455 Y103.415 E8.01452
G1 X114.767 Y103.404 E8.0249
G1 X115.494 Y103.418 E8.04908
G1 X116.214 Y103.513 E8.07324
G1 X116.919 Y103.685 E8.09738
G1 X117.602 Y103.934 E8.12155
G1 X118.253 Y104.257 E8.14573
G1 X118.412 Y104.359 E8.15201
G1 X119.058 Y104.574 E8.17465
G1 X119.839 Y104.89 E8.20268
G1 X120.306 Y105.115 E8.21992
G1 X120.913 Y105.448 E8.24294
G1 X121.343 Y105.714 E8.25976
G1 X122.06 Y106.227 E8.28908
G1 X122.474 Y106.567 E8.3069
G1 X123.006 Y107.055 E8.33091
G1 X123.474 Y107.534 E8.35319
G1 X123.952 Y108.08 E8.37732
G1 X124.168 Y108.373 E8.38943
G1 X124.653 Y109.069 E8.41764
G1 X125.148 Y109.905 E8.44996
G1 X125.391 Y110.394 E8.46812
G1 X125.741 Y111.241 E8.4986
G1 X125.983 Y111.966 E8.52402
G1 X126.201 Y112.795 E8.55253
G1 X126.297 Y113.288 E8.56924
G1 X126.407 Y114.151 E8.59817
G1 X126.449 Y114.847 E8.62137
G1 X126.447 Y115.676 E8.64894
G1 X126.406 Y116.303 E8.66984
G1 X126.286 Y117.196 E8.69981
G1 X126.164 Y117.792 E8.72004
G1 X125.971 Y118.52 E8.74509
G1 X125.793 Y119.064 E8.76413
G1 X125.532 Y119.734 E8.78804
G1 X125.297 Y120.253 E8.80699
G1 X124.926 Y120.957 E8.83346
G1 X124.646 Y121.418 E8.8514
G1 X124.031 Y122.269 E8.88632
G1 X123.654 Y122.712 E8.90567
G1 X123.165 Y123.228 E8.92931
G1 X122.771 Y123.601 E8.94736
G1 X122.217 Y124.07 E8.9715
G1 X121.785 Y124.397 E8.98952
G1 X121.214 Y124.785 E9.01248
G1 X120.752 Y125.064 E9.03043
G1 X120.15 Y125.386 E9.05314
G1 X119.659 Y125.617 E9.07119
G1 X118.975 Y125.893 E9.09572
G1 X118.493 Y126.057 E9.11265
G1 X117.832 Y126.244 E9.1355
G1 X117.34 Y126.356 E9.15228
G1 X116.697 Y126.47 E9.174
G1 X116.195 Y126.533 E9.19083
G1 X115.435 Y126.584 E9.21617
G1 X114.792 Y126.59 E9.23755
G1 X114.023 Y126.552 E9.26316
G1 X113.485 Y126.494 E9.28116
G1 X112.806 Y126.385 E9.30403
G1 X112.28 Y126.272 E9.32193
G1 X111.583 Y126.082 E9.34595
G1 X111.096 Y125.92 E9.36302
G1 X110.465 Y125.673 E9.38556
G1 X109.995 Y125.461 E9.40271
G1 X109.37 Y125.138 E9.42611
G1 X108.925 Y124.877 E9.44327
G1 X108.294 Y124.456 E9.4685
G1 X107.796 Y124.081 E9.48923
G1 X107.253 Y123.625 E9.51282
G1 X106.856 Y123.253 E9.53091
G1 X106.341 Y122.713 E9.55573
G1 X106 Y122.312 E9.57324
G1 X105.58 Y121.761 E9.59628
G1 X105.286 Y121.331 E9.61361
G1 X104.925 Y120.738 E9.6367
G1 X104.677 Y120.278 E9.65408
G1 X104.39 Y119.675 E9.67629
G1 X104.19 Y119.193 E9.69365
G1 X103.946 Y118.499 E9.71812
G1 X103.801 Y117.998 E9.73546
G1 X103.649 Y117.354 E9.75747
G1 X103.554 Y116.836 E9.77499
G1 X103.464 Y116.138 E9.79839
G1 X103.425 Y115.617 E9.81577
G1 X103.41 Y114.936 E9.83843
G1 X103.428 Y114.304 E9.85946
G1 X103.504 Y113.474 E9.88718
G1 X103.585 Y112.955 E9.90465
G1 X103.745 Y112.215 E9.92983
G1 X103.902 Y111.647 E9.94943
G1 X104.136 Y110.952 E9.97382
G1 X104.337 Y110.45 E9.99181
G1 X104.62 Y109.835 E10.01432
G1 X104.872 Y109.355 E10.03235
G1 X105.247 Y108.728 E10.05665
G1 X105.545 Y108.287 E10.07436
G1 X105.959 Y107.738 E10.09723
G1 X106.294 Y107.339 E10.11455
G1 X106.79 Y106.81 E10.13867
G0 F2550 X107.067 Y107.1
G1 F1500 X107.446 Y106.738 E10.1561
G1 X107.966 Y106.293 E10.17887
G1 X108.435 Y105.935 E10.19849
G1 X108.987 Y105.559 E10.22071
G1 X109.448 Y105.28 E10.23863
G1 X110.043 Y104.962 E10.26107
G1 X110.531 Y104.735 E10.27897
G1 X111.161 Y104.483 E10.30154
G1 X111.661 Y104.314 E10.31909
G1 X112.291 Y104.138 E10.34085
G1 X112.809 Y104.022 E10.3585
G1 X113.447 Y103.914 E10.38002
G1 X113.971 Y103.853 E10.39757
G1 X114.47 Y103.815 E10.41422
G1 X114.782 Y103.804 E10.4246
G1 X115.485 Y103.819 E10.44799
G1 X116.183 Y103.914 E10.47142
G1 X116.865 Y104.087 E10.49482
G1 X117.524 Y104.337 E10.51826
G1 X118.149 Y104.659 E10.54164
G1 X118.249 Y104.726 E10.54565
G1 X118.256 Y104.728 E10.54589
G1 X118.932 Y104.953 E10.56959
G1 X119.665 Y105.25 E10.59589
G1 X120.132 Y105.475 E10.61313
G1 X120.703 Y105.788 E10.63479
G1 X121.133 Y106.054 E10.65161
G1 X121.806 Y106.536 E10.67914
G1 X122.22 Y106.876 E10.69696
G1 X122.72 Y107.334 E10.71951
G1 X123.188 Y107.813 E10.74178
G1 X123.84 Y108.601 E10.7758
G1 X124.325 Y109.297 E10.80402
G1 X124.79 Y110.083 E10.83439
G1 X125.033 Y110.572 E10.85255
G1 X125.362 Y111.368 E10.8812
G1 X125.604 Y112.093 E10.90662
G1 X125.809 Y112.871 E10.93338
G1 X125.905 Y113.364 E10.95009
G1 X126.008 Y114.176 E10.97731
G1 X126.05 Y114.872 E11.0005
G1 X126.048 Y115.65 E11.02638
G1 X126.007 Y116.277 E11.04728
G1 X125.894 Y117.115 E11.0754
G1 X125.772 Y117.711 E11.09564
G1 X125.591 Y118.396 E11.1192
G1 X125.413 Y118.94 E11.13824
G1 X125.168 Y119.569 E11.16069
G1 X124.933 Y120.088 E11.17964
G1 X124.584 Y120.75 E11.20453
G1 X124.304 Y121.211 E11.22247
G1 X123.727 Y122.01 E11.25525
G1 X123.35 Y122.453 E11.2746
G1 X122.89 Y122.937 E11.2968
G1 X122.496 Y123.31 E11.31485
G1 X121.976 Y123.751 E11.33753
G1 X121.544 Y124.078 E11.35555
G1 X121.007 Y124.442 E11.37713
G1 X120.545 Y124.721 E11.39508
G1 X119.979 Y125.024 E11.41643
G1 X119.488 Y125.255 E11.43448
G1 X118.846 Y125.515 E11.45751
G1 X118.364 Y125.679 E11.47445
G1 X117.743 Y125.854 E11.49591
G1 X117.251 Y125.966 E11.51269
G1 X116.647 Y126.073 E11.53309
